resources/svg/translations-raw.svg

<svg width="24" height="24" viewBox="0 0 24 24" fill="none" xmlns="http://www.w3.org/2000/svg">
<path fill-rule="evenodd" clip-rule="evenodd" d="M2.42776 7.75V16.25C2.42776 16.4353 2.5797 16.5833 2.76997 16.5833H11.3251V7.41667H2.76893C2.67838 7.41645 2.59147 7.4514 2.52744 7.51377C2.46341 7.57613 2.42754 7.66079 2.42776 7.74899L2.42776 7.75ZM11.7529 7V17H2.76997C2.34345 17 2 16.6655 2 16.25V7.75C1.99951 7.55094 2.08047 7.35989 2.22497 7.21914C2.36948 7.07838 2.56561 6.99952 2.76997 7H11.7529Z" fill="#272C37"/>
<path fill-rule="evenodd" clip-rule="evenodd" d="M12.4999 16.7726V7.22716H21.2495C21.392 7.22668 21.5287 7.28159 21.6295 7.37973C21.7302 7.47787 21.7866 7.61111 21.7861 7.74989V16.2499C21.7861 16.5399 21.5481 16.7726 21.2495 16.7726H12.4999ZM20.0942 11.1244C20.3065 11.1239 20.4786 10.9566 20.4797 10.7498V10.2498C20.4797 10.0435 20.3061 9.87437 20.0951 9.87437H18.0419V9.37437C18.0419 9.16891 17.8683 8.99982 17.6564 8.99982H17.1431C16.9313 8.99982 16.7586 9.16891 16.7586 9.37437V9.87437H14.7054C14.4935 9.87437 14.3199 10.0435 14.3199 10.2498V10.7498C14.3209 10.9563 14.4925 11.1234 14.7044 11.1244H18.3723C18.1726 11.5716 17.8422 12.0307 17.4091 12.4744C17.1973 12.2589 17.0115 12.0398 16.851 11.8216C16.7341 11.6619 16.5112 11.6157 16.3377 11.7153L16.1034 11.8498L15.8953 11.9716C15.8038 12.0247 15.7391 12.1124 15.7166 12.2138C15.6942 12.3152 15.716 12.4211 15.7768 12.5062C15.9812 12.789 16.206 13.0573 16.4497 13.3089C16.1912 13.5062 15.9112 13.6935 15.6125 13.8716C15.4341 13.977 15.3745 14.2016 15.4781 14.378L15.7311 14.8125C15.7829 14.9008 15.8691 14.9649 15.9702 14.9903C16.0713 15.0156 16.1786 15 16.2677 14.9471C16.6746 14.7025 17.0535 14.4407 17.4026 14.1689C17.7642 14.451 18.1436 14.7109 18.5384 14.9471C18.6275 15 18.7348 15.0156 18.8359 14.9903C18.937 14.9649 19.0233 14.9008 19.075 14.8125L19.327 14.378C19.4297 14.1998 19.3737 13.978 19.1964 13.8725C18.908 13.6998 18.6289 13.5089 18.3592 13.3089C19.0331 12.6062 19.5072 11.8625 19.7293 11.1244H20.0942Z" fill="#272C37"/>
<path fill-rule="evenodd" clip-rule="evenodd" d="M21.2491 7.01883C21.4484 7.01826 21.6398 7.09512 21.7807 7.23242C21.9216 7.36968 22.0006 7.55601 22 7.75012V16.2499C22 16.6547 21.6665 16.9809 21.2495 16.9809H12.286V7.01883H21.2491ZM21.4783 7.52704C21.4178 7.46816 21.3357 7.4352 21.2502 7.43549L12.7137 7.4355V16.5643H21.2495C21.4298 16.5643 21.5722 16.4251 21.5722 16.2499V7.74989C21.5725 7.66661 21.5387 7.58593 21.4783 7.52704ZM17.1431 9.20815C17.0497 9.20815 16.9725 9.28364 16.9725 9.37437V10.0827H14.7054C14.6116 10.0827 14.5338 10.1585 14.5338 10.2498V10.7492C14.5345 10.8411 14.6108 10.9154 14.7051 10.916H18.6985L18.5684 11.2075C18.3562 11.6827 18.0095 12.1617 17.5641 12.6179L17.4097 12.7761L17.2547 12.6185C17.0359 12.396 16.8437 12.1693 16.6772 11.943C16.6247 11.8712 16.5243 11.85 16.4463 11.8947L16.2128 12.0288L16.0055 12.1502C15.965 12.1737 15.9356 12.2129 15.9257 12.2578C15.9158 12.3025 15.9253 12.3492 15.9521 12.3868C16.1505 12.6613 16.3688 12.9217 16.6053 13.1659L16.7662 13.3321L16.5816 13.4729C16.3158 13.6757 16.029 13.8675 15.7242 14.0493L15.7234 14.0498C15.6442 14.0965 15.6178 14.1962 15.6638 14.2745L15.6642 14.2753L15.9167 14.7092C15.9399 14.7485 15.9785 14.7772 16.0235 14.7885C16.0685 14.7998 16.1163 14.7929 16.156 14.7695C16.5551 14.5295 16.9268 14.2727 17.269 14.0062L17.4027 13.9021L17.5363 14.0063C17.891 14.283 18.2631 14.5379 18.6503 14.7696C18.6901 14.7932 18.7375 14.7998 18.7826 14.7885C18.8276 14.7772 18.866 14.7488 18.8891 14.7096L19.1405 14.276C19.1888 14.1921 19.1604 14.0952 19.0849 14.0504C18.7892 13.8732 18.5037 13.6778 18.2297 13.4747L18.0414 13.3351L18.2029 13.1667C18.8608 12.4806 19.3138 11.7646 19.524 11.0658L19.5691 10.916H20.0939C20.1885 10.9157 20.2651 10.8413 20.2658 10.7492V10.2498C20.2658 10.1582 20.1876 10.0827 20.0951 10.0827H17.828V9.37437C17.828 9.2843 17.7505 9.20815 17.6564 9.20815H17.1431ZM16.5447 9.37437C16.5447 9.05418 16.8128 8.79149 17.1431 8.79149H17.6564C17.9861 8.79149 18.2558 9.05352 18.2558 9.37437V9.66603H20.0951C20.4245 9.66603 20.6935 9.92873 20.6935 10.2498V10.7498L20.6935 10.7508C20.6919 11.0721 20.4245 11.3319 20.0947 11.3327L19.8862 11.3327C19.6573 11.9979 19.2399 12.6562 18.6758 13.2791C18.8821 13.4261 19.0929 13.566 19.3084 13.6951C19.5875 13.8611 19.6705 14.2076 19.5136 14.48L19.2613 14.915L19.2607 14.9159C19.1803 15.0531 19.0463 15.1526 18.8892 15.192C18.7322 15.2314 18.5655 15.2072 18.427 15.125C18.073 14.9132 17.7306 14.6823 17.4025 14.4341C17.0843 14.6745 16.7431 14.9062 16.38 15.1244L16.3791 15.125C16.2406 15.2072 16.0739 15.2314 15.9169 15.192C15.7598 15.1526 15.6258 15.0531 15.5454 14.9159L15.2925 14.4815C15.1316 14.2073 15.2241 13.8577 15.5012 13.6938C15.7236 13.561 15.9348 13.4236 16.1337 13.281C15.9441 13.0726 15.7665 12.8539 15.6019 12.6261L15.6013 12.6252C15.5065 12.4927 15.4726 12.3277 15.5076 12.1698C15.5426 12.012 15.6432 11.8755 15.7855 11.7928L15.9948 11.6704L16.2291 11.5358C16.4981 11.3814 16.8437 11.4529 17.025 11.7005C17.1393 11.8558 17.267 12.0118 17.4087 12.1669C17.662 11.8882 17.8701 11.6077 18.0275 11.3327H14.7044L14.7034 11.3327C14.3742 11.3312 14.1076 11.0715 14.106 10.7508L14.106 10.7498V10.2498C14.106 9.9284 14.3754 9.66603 14.7054 9.66603H16.5447V9.37437Z" fill="#272C37"/>
<path fill-rule="evenodd" clip-rule="evenodd" d="M6.06412 9.421L4.26867 14.5676L4.26958 14.5667C4.23104 14.6786 4.25002 14.8017 4.3206 14.8977C4.39118 14.9936 4.50477 15.0507 4.62594 15.0511H5.34139C5.50787 15.0494 5.65366 14.9419 5.70048 14.7863L5.98321 13.8193H7.86501L8.15865 14.7898C8.20578 14.9453 8.35228 15.0519 8.51864 15.052H9.235C9.35632 15.0519 9.4702 14.995 9.54087 14.8989C9.61154 14.8028 9.63034 14.6795 9.59136 14.5676L7.79319 9.421C7.74047 9.27489 7.59683 9.17394 7.43683 9.17394H6.42048C6.25944 9.17288 6.11583 9.27244 6.06412 9.421ZM6.93682 10.5164C6.93682 10.5164 7.07136 11.1584 7.18045 11.5276V11.5267L7.52136 12.669H6.33046L6.67773 11.5267C6.78682 11.1584 6.92136 10.5164 6.92136 10.5164H6.93682Z" fill="#272C37"/>
</svg>

<svg width="24" height="24" xmlns="http://www.w3.org/2000/svg"><path fill-rule="evenodd" clip-rule="evenodd" d="M2.428 7.75v8.5c0 .185.152.333.342.333h8.555V7.417H2.77a.345.345 0 0 0-.242.097.327.327 0 0 0-.1.235v.001ZM11.753 7v10H2.77a.759.759 0 0 1-.77-.75v-8.5c0-.2.08-.39.225-.53.144-.142.34-.22.545-.22h8.983ZM12.5 16.773V7.227h8.75c.142 0 .279.055.38.153.1.098.157.231.156.37v8.5c0 .29-.238.523-.537.523H12.5Zm7.594-5.649a.382.382 0 0 0 .386-.374v-.5a.382.382 0 0 0-.385-.376h-2.053v-.5A.382.382 0 0 0 17.656 9h-.513a.38.38 0 0 0-.384.374v.5h-2.054a.382.382 0 0 0-.385.376v.5a.381.381 0 0 0 .384.374h3.668c-.2.448-.53.907-.963 1.35a6.037 6.037 0 0 1-.558-.652.395.395 0 0 0-.513-.107l-.235.135-.208.122a.366.366 0 0 0-.119.535 7.3 7.3 0 0 0 .674.802 8.847 8.847 0 0 1-.837.563.37.37 0 0 0-.135.506l.253.434a.385.385 0 0 0 .24.178c.1.026.208.01.297-.043.407-.244.785-.506 1.135-.778.361.282.74.542 1.135.778.09.053.197.069.298.043a.385.385 0 0 0 .239-.178l.252-.434a.368.368 0 0 0-.13-.505 10.267 10.267 0 0 1-.838-.564c.674-.703 1.148-1.446 1.37-2.185h.365Z"/><path fill-rule="evenodd" clip-rule="evenodd" d="M21.25 7.019c.198 0 .39.076.53.213a.72.72 0 0 1 .22.518v8.5a.739.739 0 0 1-.75.73h-8.964V7.02h8.963Zm.228.508a.326.326 0 0 0-.228-.092h-8.536v9.13h8.536c.18 0 .322-.14.322-.315v-8.5a.31.31 0 0 0-.094-.223Zm-4.335 1.681a.17.17 0 0 0-.17.166v.709h-2.268a.17.17 0 0 0-.171.167v.5a.17.17 0 0 0 .171.166h3.993l-.13.291c-.212.476-.559.955-1.004 1.41l-.154.16-.155-.159a6.239 6.239 0 0 1-.578-.675.178.178 0 0 0-.23-.048l-.234.134-.207.121a.167.167 0 0 0-.08.108c-.01.045 0 .091.026.129.199.274.417.535.653.779l.161.166-.184.14a9.085 9.085 0 0 1-.858.577.164.164 0 0 0-.06.226l.253.434c.023.04.062.068.106.08a.177.177 0 0 0 .133-.02c.4-.24.77-.496 1.113-.763l.134-.104.133.104c.355.277.727.532 1.114.764a.175.175 0 0 0 .24-.06l.25-.434a.163.163 0 0 0-.055-.226 10.549 10.549 0 0 1-.855-.575l-.189-.14.162-.168c.658-.686 1.11-1.402 1.321-2.101l.045-.15h.525a.17.17 0 0 0 .172-.167v-.5a.17.17 0 0 0-.17-.166h-2.268v-.709a.17.17 0 0 0-.172-.166h-.513Zm-.598.166c0-.32.268-.583.598-.583h.513c.33 0 .6.263.6.583v.292h1.84c.328 0 .598.263.598.584v.5a.593.593 0 0 1-.6.583h-.208c-.229.665-.646 1.323-1.21 1.946.206.147.417.287.632.416.28.166.363.513.206.785l-.253.435a.598.598 0 0 1-.372.277.614.614 0 0 1-.462-.067 11.405 11.405 0 0 1-1.024-.69c-.319.24-.66.471-1.023.69a.614.614 0 0 1-.463.067.598.598 0 0 1-.372-.276l-.252-.434a.575.575 0 0 1 .208-.788c.223-.133.434-.27.633-.413a7.505 7.505 0 0 1-.532-.655.57.57 0 0 1-.094-.456.583.583 0 0 1 .278-.377l.209-.123.234-.134a.612.612 0 0 1 .796.165c.114.155.242.31.384.466.253-.279.461-.56.619-.834h-3.324a.593.593 0 0 1-.598-.582v-.501c0-.322.27-.584.6-.584h1.839v-.292ZM6.064 9.421 4.27 14.568v-.001a.36.36 0 0 0 .052.33.38.38 0 0 0 .305.154h.715a.377.377 0 0 0 .36-.265l.282-.967h1.882l.294.97a.374.374 0 0 0 .36.263h.716a.38.38 0 0 0 .306-.153c.07-.096.09-.22.05-.331L7.793 9.42a.38.38 0 0 0-.356-.247H6.42a.373.373 0 0 0-.356.247Zm.873 1.095s.134.642.243 1.012v-.001l.341 1.142h-1.19l.347-1.142c.109-.369.243-1.01.243-1.01h.016Z"/></svg>
